icon/pk/puzzle.svg

<svg viewBox="0 0 48 48" fill="none" xmlns="http://www.w3.org/2000/svg" height="1em" width="1em">
  <path d="M4 24V12H13V10C13 6.68629 15.6863 4 19 4C22.3137 4 25 6.68629 25 10V12H34V24H38C41.3137 24 44 26.6863 44 30C44 33.3137 41.3137 36 38 36H34V44H4V36H8C11.3137 36 14 33.3137 14 30C14 26.6863 11.3137 24 8 24H4Z" fill="#2F88FF" stroke="black" stroke-width="4" stroke-linejoin="round"/>
</svg>

<svg width="48" height="48" fill="none" xmlns="http://www.w3.org/2000/svg"><path d="M4 24V12h9v-2a6 6 0 0 1 12 0v2h9v12h4a6 6 0 0 1 0 12h-4v8H4v-8h4a6 6 0 0 0 0-12H4Z" fill="#2F88FF" stroke="#000" stroke-width="4" stroke-linejoin="round"/></svg>
